packages/astro-components-stencil/src/icons/filter-frames.svg

<svg width="24" height="24" viewBox="0 0 24 24" fill="none" xmlns="http://www.w3.org/2000/svg">
<path fill-rule="evenodd" clip-rule="evenodd" d="M20 3.99998H16L12.71 0.70998C12.32 0.31998 11.69 0.31998 11.3 0.70998L8 3.99998H4C2.9 3.99998 2 4.89998 2 5.99998V20C2 21.1 2.9 22 4 22H20C21.1 22 22 21.1 22 20V5.99998C22 4.89998 21.1 3.99998 20 3.99998ZM19 20H5C4.45 20 4 19.55 4 19V6.99998C4 6.44998 4.45 5.99998 5 5.99998H8.52L12.04 2.49998L15.52 5.99998H19C19.55 5.99998 20 6.44998 20 6.99998V19C20 19.55 19.55 20 19 20ZM7 7.99998H17C17.55 7.99998 18 8.44998 18 8.99998V17C18 17.55 17.55 18 17 18H7C6.45 18 6 17.55 6 17V8.99998C6 8.44998 6.45 7.99998 7 7.99998Z" fill="black"/>
</svg>

<svg xmlns="http://www.w3.org/2000/svg" viewBox="0 0 24 24"><g xmlns="http://www.w3.org/2000/svg" id="filter-frames" fill-rule="nonzero">
            <path d="M20 4h-4L12.71.71a.996.996 0 00-1.41 0L8 4H4c-1.1 0-2 .9-2 2v14c0 1.1.9 2 2 2h16c1.1 0 2-.9 2-2V6c0-1.1-.9-2-2-2zm-1 16H5c-.55 0-1-.45-1-1V7c0-.55.45-1 1-1h3.52l3.52-3.5L15.52 6H19c.55 0 1 .45 1 1v12c0 .55-.45 1-1 1zM17 8H7c-.55 0-1 .45-1 1v8c0 .55.45 1 1 1h10c.55 0 1-.45 1-1V9c0-.55-.45-1-1-1z"/>
        </g></svg>
